X: 2266
M: 6/8
L: 1/8
K: G
(uBc) |\
dBG dBG | ege dBG | cac BgB | cAG FED |\
dBG ecA | fdB gag | fed cAF | AGG G2 :|
|: G |\


